static/assets/img/icons/theme/files/folder-heart.svg

<svg height="24" viewBox="0 0 24 24" width="24" xmlns="http://www.w3.org/2000/svg"><g fill="none" fill-rule="evenodd"><path d="m0 0h24v24h-24z" opacity="0"/><g fill="#000"><path d="m3.5 21h17c.8284271 0 1.5-.6715729 1.5-1.5v-11c0-.82842712-.6715729-1.5-1.5-1.5h-10.5l-2.56066017-2.56066017c-.28130457-.28130457-.66283544-.43933983-1.06066017-.43933983h-2.87867966c-.82842712 0-1.5.67157288-1.5 1.5v14c0 .8284271.67157288 1.5 1.5 1.5z" opacity=".3"/><path d="m14.35 10.5c-.80475 0-1.745875.9123161-2.25 1.5-.504125-.5876839-1.44525-1.5-2.25-1.5-1.4245 0-2.25 1.1110899-2.25 2.5252044 0 1.5665304 1.5 3.2247956 4.5 4.9747956 3-1.75 4.5-3.375 4.5-4.875 0-1.4141144-.8255-2.625-2.25-2.625z" fill-rule="nonzero" opacity=".3"/></g></g></svg>

<svg width="24px" height="24px" viewBox="0 0 24 24" version="1.1" xmlns="http://www.w3.org/2000/svg" xmlns:xlink="http://www.w3.org/1999/xlink">
    <title>Icon For Folder-heart</title>
    <g stroke="none" stroke-width="1" fill="none" fill-rule="evenodd">
        <rect opacity="0" x="0" y="0" width="24" height="24"></rect>
        <path d="M3.5,21 L20.5,21 C21.3284271,21 22,20.3284271 22,19.5 L22,8.5 C22,7.67157288 21.3284271,7 20.5,7 L10,7 L7.43933983,4.43933983 C7.15803526,4.15803526 6.77650439,4 6.37867966,4 L3.5,4 C2.67157288,4 2,4.67157288 2,5.5 L2,19.5 C2,20.3284271 2.67157288,21 3.5,21 Z" fill="#000000" opacity="0.3"></path>
        <path d="M14.35,10.5 C13.54525,10.5 12.604125,11.4123161 12.1,12 C11.595875,11.4123161 10.65475,10.5 9.85,10.5 C8.4255,10.5 7.6,11.6110899 7.6,13.0252044 C7.6,14.5917348 9.1,16.25 12.1,18 C15.1,16.25 16.6,14.625 16.6,13.125 C16.6,11.7108856 15.7745,10.5 14.35,10.5 Z" fill="#000000" fill-rule="nonzero" opacity="0.3"></path>
    </g>
</svg>
